src/components/Icon/assets/megaphone.svg

<svg width="24" height="24" viewBox="0 0 24 24" fill="none" xmlns="http://www.w3.org/2000/svg">
<path fill-rule="evenodd" clip-rule="evenodd" d="M19.0002 17.129L14.1942 14.378C13.7622 14.13 13.2712 14 12.7732 14H9.0002V7.97403H12.7732C13.2712 7.97403 13.7622 7.84303 14.1942 7.59603L19.0002 4.84503V17.129ZM5.0002 14H7.0002V7.974H5.0002V14ZM20.1382 2.01801C19.9962 2.01801 19.8502 2.05401 19.7112 2.13301L13.2012 5.86001C13.0702 5.93501 12.9232 5.97401 12.7732 5.97401H4.0002C3.4482 5.97401 3.0002 6.42201 3.0002 6.97401V15C3.0002 15.552 3.4482 16 4.0002 16H4.6682L3.7602 20.399C3.6962 20.709 3.9332 21 4.2502 21H6.5712C6.9502 21 7.2782 20.733 7.3542 20.362L8.2552 16H12.7732C12.9232 16 13.0702 16.039 13.2012 16.114L19.7112 19.841C19.8502 19.92 19.9962 19.956 20.1382 19.956C20.5872 19.956 21.0002 19.596 21.0002 19.094V2.88001C21.0002 2.37801 20.5872 2.01801 20.1382 2.01801V2.01801Z" fill="#65676A"/>
</svg>

<svg xmlns="http://www.w3.org/2000/svg" width="24" height="24" viewBox="0 0 24 24">
    <path fill="#65676A" fill-rule="evenodd" d="M19 17.129l-4.806-2.751c-.432-.248-.923-.378-1.42-.378H9V7.974h3.773c.498 0 .99-.131 1.421-.378L19 4.845v12.284zM5 14h2V7.974H5V14zM20.138 2.018c-.142 0-.288.036-.427.115l-6.51 3.727c-.13.075-.278.114-.428.114H4c-.552 0-1 .448-1 1V15c0 .552.448 1 1 1h.668l-.908 4.399c-.064.31.173.601.49.601h2.321c.38 0 .707-.267.783-.638L8.255 16h4.518c.15 0 .297.039.428.114l6.51 3.727c.14.079.285.115.427.115.45 0 .862-.36.862-.862V2.88c0-.502-.413-.862-.862-.862z"/>
</svg>
